www/assets/icons/home_repair_service.svg

<svg xmlns="http://www.w3.org/2000/svg" width="24" height="24" viewBox="0 0 24 24" fill='currentColor'><path d="M18 16h-2v-1H8v1H6v-1H2v5h20v-5h-4zm2-8h-3V6c0-1.1-.9-2-2-2H9c-1.1 0-2 .9-2 2v2H4c-1.1 0-2 .9-2 2v4h4v-2h2v2h8v-2h2v2h4v-4c0-1.1-.9-2-2-2m-5 0H9V6h6z"/></svg>

<svg width="24" height="24" viewBox="0 0 24 24" xmlns="http://www.w3.org/2000/svg" fill='currentColor'><path d="M18 16H16V15H8V16H6V15H2V20H22V15H18V16Z"/><path d="M20 8H17V6C17 4.9 16.1 4 15 4H9C7.9 4 7 4.9 7 6V8H4C2.9 8 2 8.9 2 10V14H6V12H8V14H16V12H18V14H22V10C22 8.9 21.1 8 20 8ZM15 8H9V6H15V8Z"/></svg>
